X: 67
P: No. LXVII.
M: 6/8
L: 1/8
K: G
V: 1
|:\
g2dg2d | edc B{c}dd |\
(e/f/g)g afd | gd'd' d'2c' |\
(b{a}g/a/b) ege | (a/g/f/g/a) dfd |\
gfe dBd | g3 g3 :|\
|:\
d2G (B/c/d)B | e(c/d/e) d(B/c/d) |
b2b bc'b | bc'b bge |\
(f/g/a)a ad'a | ad'a afd |\
gfe dBG | Bdd Tb2a |\
{g}f2e dBd | g3 g3 :|
V: 2 clef=bass middle=d
|:\
g3 G3 | c3 G3 | c2e d2c | B2g f2d |\
g3 c3 | d3 c3 | B2c d3 | G2g G3 :|\
|:\
g3 G3 | g3 g3 | d3 f3 | d3 f3 |\
g2c' b3 | g3 g2c | d2c d3 | G2g G3 :|

